X:6
T:Passacaille (suite en La mineur)
R:Passacaille
G:guitare
C:Robert de Vise
B:I. livre de guittarre ddi au Roy (1682)
O:France
Z:<anamnese@laposte.net> -- http://anamnese.fr.st
M:3/4
L:1/8
Q:1/4=95
K:Am
K:C
%%staves (1 2 3)
V:1
%%MIDI program 24
%%MIDI channel 1
%%MIDI transpose -12
%%MIDI control 7 120 %volume
%%MIDI control 10 85 %pan
%%text "A la fin de chaque couplet l'on joue le premier une fois seulement." 
AB cd | !segno![c2e2] [^c2e2] ^fg | !trill![A2d2^f2] [Acf][Acf] [d2^g2] | [e2a2] A2A^G | [c2e2] :|
"[1er couplet]"[ea]e ab | [e2c'2] bc' (ba) | [B2^g2] [Be](=f e)d | [A2c2] z A B^G | (^GA) :|
!segno!AB cd |: "[2e couplet]"z (b c')d' | [e2b2] z ([fa] [fb])[ec'] | [e2a2] z (e- e)d |
B6  | a2 :|!segno!AB cd|:"[3e couplet]"(f!trill!e) (d!trill!c) | d2 B3 z |
[A2c2] (ag) (f!trill!e) | (dc) (c!trill!B) A^G | [c2e2] :| !segno! AB cd
|:"[4e couplet]" ze (ef) | !trill!d3 d (de) | !trill!c3 c (cd) | !trill![A2B2] B(^c d)B | [A2=c2] |]
!segno! AB cd |:"[5e couplet]" [Be](f e)d | !trill![A2^c2] [ea](b a)g | !trill![d2^f2] [fb](c' b)a |
^g>a a3 g | (^ga) :| !segno! AB cd |: "[6e couplet]"a=g !trill!fe | [df]d [Bg]f !trill!ed |
ec [ec'](b a)g | (fe) (dc) (c<B) (A/^G/) | [A2c2] :| !segno!AB cd ||
|:"[7e couplet]" e3 e | a2 !trill!=g3 a | !trill![d2^f2] b3c' | ([ca][db]) !trill!^g3 a | [e2a2] :|
|: AB cd | [c2e2] [^c2e2] ^fg | [A2d2^f2] [A=cf][Acf] [d2^g2] | [e2a2] [E4B4] | [c2e2] :|
V:2
%%MIDI program 24
%%MIDI channel 2
%%MIDI transpose -12
%%MIDI control 7 120 %volume
%%MIDI control 10 45 %pan
z4 | [E2A2] [E4A4] | [D4A4] B2 | cD [E4B4] | [E2A2] :|
[A4c4] | [A2c2] [d2f2] z2 | (E^F)^G4 | AD E4 | A2 :|
z4 | A4 | ^G2 =G4 | ^F2 =F4 |
(EF) ([Ee][Dd]) (c!trill!B) | [A2c2] :|z4 |: z4 | [E2^G2] G4 |
E2 A4 | D2 E4 | [E2A2] :| z4 
|: c2 (cd) | B2B2 (Bc) | A2A2 (AB) | E2 [E4^G4] | E2 |]
z4 |: ^G4 | E2 ^c4 | A2 ^d4 |
e>z [e3e3]z | A :| z4 |: A4 | [D2A2]G4 |
c2 [c4e4] | d2D2 E2 | E2 :| z4 ||
%7me
|:[E4A4c4] | AB ^c2 A2 | [D2A2] [^G4d4e4] | e2 [B4e4] | A2 :|
|:z4 | [E2A2] [E4A4] | [D4A4] B2 | cD A2 A^G | [E2A2] :|
V:3
%%MIDI program 24
%%MIDI channel 3
%%MIDI transpose -12
%%MIDI control 7 120 %volume
%%MIDI control 10 65 %pan
x4 | x6 | x6 | x6 | x2 :: x4 | x6 |
x6 | x6 | x2 :| x4 |: x4 | x6 | x3 ^ga2 | 
^g2  g4 | x2 :| x4 |: x4 | x2 ([Ee][Dd]) cB |
x6 | x2 A3 x | x4 :| x4 
|: x4 | x6 | x6 | x6 | x6 |]
x4 |: x4 | x6 | x6 |
 x6 | x2 :| x4 |: x4 | x6 |
 x6 |  x4 A x | x6 :| x4 ||
